assets/sonr-icons/currency-rupee.svg

<svg xmlns="http://www.w3.org/2000/svg" width="24" height="24" fill="none" viewBox="0 0 24 24"><path fill="#000" d="M6.24 2.40002C5.70981 2.40002 5.28 2.82983 5.28 3.36002C5.28 3.89022 5.70981 4.32002 6.24 4.32002H9.12C10.4595 4.32002 11.3936 4.81279 12.0025 5.49781C12.4225 5.97034 12.7106 6.56105 12.8543 7.20002H6.24C5.70981 7.20002 5.28 7.62983 5.28 8.16002C5.28 8.69022 5.70981 9.12002 6.24 9.12002H12.8543C12.7106 9.759 12.4225 10.3497 12.0025 10.8222C11.3936 11.5073 10.4595 12 9.12 12H6.24C5.84642 12 5.49271 12.2403 5.34762 12.6061C5.20252 12.972 5.29545 13.3893 5.58205 13.6591L13.7421 21.3391C14.1281 21.7025 14.7357 21.6841 15.0991 21.298C15.4625 20.9119 15.444 20.3043 15.058 19.941L8.66072 13.92H9.12C10.9805 13.92 12.4464 13.2128 13.4375 12.0978C14.1908 11.2504 14.6409 10.201 14.8069 9.12002H17.76C18.2902 9.12002 18.72 8.69022 18.72 8.16002C18.72 7.62983 18.2902 7.20002 17.76 7.20002H14.8069C14.6472 6.16029 14.2247 5.14973 13.5223 4.32002H17.76C18.2902 4.32002 18.72 3.89022 18.72 3.36002C18.72 2.82983 18.2902 2.40002 17.76 2.40002H6.24Z"/></svg>

<svg xmlns="http://www.w3.org/2000/svg" width="24" height="24" fill="none"><path fill="currentColor" d="M6.24 2.4a.96.96 0 0 0 0 1.92h2.88c1.34 0 2.274.493 2.883 1.178.42.472.708 1.063.851 1.702H6.24a.96.96 0 0 0 0 1.92h6.614a3.8 3.8 0 0 1-.851 1.702C11.393 11.507 10.46 12 9.12 12H6.24a.96.96 0 0 0-.658 1.66l8.16 7.68a.96.96 0 1 0 1.316-1.399L8.661 13.92h.459c1.86 0 3.326-.707 4.318-1.822.753-.848 1.203-1.897 1.369-2.978h2.953a.96.96 0 1 0 0-1.92h-2.953c-.16-1.04-.582-2.05-1.285-2.88h4.238a.96.96 0 1 0 0-1.92z"/></svg>
